X:2546
T:The dimple
C:anon.
O:England
S:Vicker's MS
Z:C.G.P
F:http://abc.musicaviva.com/tunes/england/the-dimple.abc
%Posted at abcusers Jan 2nd 2001 by Johnny Adams.
M:4/4
L:1/8
Q:1/4=200
K:D
|:A|d2fd ecAc|BGEB AFDA|d2fd eagf|edcBA3:|
|:A|B2GBA2FA|G2EGF2DA|B2GB AdcB|AGFED3:|
W:
W:
W:  From Musica Viva - http://www.musicaviva.com
W:  the Internet center for free sheet music downloads.
